X:25
T: ES WAR'N ZWEI KOENIGSKINDER
N: Z0026
O: Europa, Mitteleuropa, Deutschland
R: Sagen - Lied, Romanze, Tod
M: 4/4
L: 1/16
K: D
D2D2D2 | A4G4A4=F4 | z8z2
A2A2A2 | _B4A4=F4G4 | =F8z2
F2F2A2 | G2=F2G2A2G2F2E2D2 | =C4C8
C4 | D2E2=F2D2A2G2F2ED | D6z4

@@@ Tune index: 9783
